X: 22093
T: Knocktoran Fair
R: reel
M: 4/4
K: Dmajor
|:D2 (3FED F<A A2|(3BAF A>F E>DE<F|D2 (3FED F<A A2|B>d (3cBA d2d2:|
f>de>c d>cB>A|B>cd>B A<FF>A|(3fed e>c d>cB>A|B>d (3cBA d2d>e|
f>de>c d>cB>A|B>cd>B A<FF>A|D2 (3FED F>A A2|B>d (3cBA d2d2|

